packages/ffe-icons/icons/filled/sm/view_array.svg

<svg xmlns="http://www.w3.org/2000/svg" height="20" viewBox="0 -960 960 960" width="20"><path d="M164.001-301.463v-357.074q0-17.276 12.1-29.369 12.099-12.093 29.384-12.093t29.362 12.093q12.077 12.093 12.077 29.369v357.074q0 17.276-12.1 29.369-12.099 12.093-29.384 12.093t-29.362-12.093q-12.077-12.093-12.077-29.369Zm180.077 41.462q-17.276 0-29.369-12.093t-12.093-29.369v-357.074q0-17.276 12.093-29.369t29.369-12.093h271.844q17.276 0 29.369 12.093t12.093 29.369v357.074q0 17.276-12.093 29.369t-29.369 12.093H344.078Zm368.998-41.462v-357.074q0-17.276 12.1-29.369 12.099-12.093 29.384-12.093t29.362 12.093q12.077 12.093 12.077 29.369v357.074q0 17.276-12.1 29.369-12.099 12.093-29.384 12.093t-29.362-12.093q-12.077-12.093-12.077-29.369Z"/></svg>

<svg xmlns="http://www.w3.org/2000/svg" height="20" viewBox="0 -960 960 960" width="20"><path d="M164-301.46v-357.08q0-17.27 12.1-29.37Q188.2-700 205.49-700q17.28 0 29.36 12.09 12.07 12.1 12.07 29.37v357.08q0 17.27-12.1 29.37Q222.72-260 205.44-260t-29.36-12.09Q164-284.19 164-301.46ZM344.08-260q-17.28 0-29.37-12.09-12.09-12.1-12.09-29.37v-357.08q0-17.27 12.09-29.37Q326.8-700 344.08-700h271.84q17.28 0 29.37 12.09 12.09 12.1 12.09 29.37v357.08q0 17.27-12.09 29.37Q633.2-260 615.92-260H344.08Zm369-41.46v-357.08q0-17.27 12.1-29.37Q737.28-700 754.56-700t29.36 12.09Q796-675.81 796-658.54v357.08q0 17.27-12.1 29.37Q771.8-260 754.51-260q-17.28 0-29.36-12.09-12.07-12.1-12.07-29.37Z"/></svg>
